X:1
T:Bobby Casey's
C:Michael Dwyer
R:reel
Z:id:hn-reel-288
M:4/4
L:1/8
K:D
DFAB B2AB|d2fd edBA|DFAB B2AB|dgfd edBA|
DFAB B2AB|d2fd edBd|faaf gefe|defd edBA:|
d2df eBBA|defg affe|dcdf eB~B2|gB~B2 dBAB|
d2fd edfd|Adfd edBd|ABdf afbf|afeg fddA:|
</abc>
